X:86
T:Flowers of Edinburgh
R:Reel
M:4/4
L:1/8
K:G
|:D3EG3A|B2d2 cBAG|FGEF DEFG|AF dFE2GE|
|D3EG3A|B2d2 efge|dcBA GFGA|1 B2G2G4:|2 B2G2G2Bd|
|:g2g2gbag|f2f2fagf|e2ef gfed|B2e2e3e|
|dBGB d2d2|edef g2fe|dcBA GFGA|1 B2G2G2Bd:|2 B2G2G4|
